client/assets/images/jetpack/wp-to-jp-vertical.svg

<svg width="25" height="43" viewBox="0 0 25 43" fill="none" xmlns="http://www.w3.org/2000/svg">
<path d="M23.6271 11.3135C23.6271 5.07978 18.5473 0 12.3135 0C6.06847 0 1 5.07978 1 11.3135C1 17.5586 6.06847 22.6271 12.3135 22.6271C18.5473 22.6271 23.6271 17.5586 23.6271 11.3135ZM9.80194 17.3889L5.94402 7.03703C6.56627 7.0144 7.26771 6.94652 7.26771 6.94652C7.83338 6.87864 7.7655 5.66809 7.19982 5.69071C7.19982 5.69071 5.55936 5.81516 4.51851 5.81516C4.31487 5.81516 4.09991 5.81516 3.86233 5.80385C5.66118 3.04334 8.77241 1.2558 12.3135 1.2558C14.9496 1.2558 17.3481 2.24008 19.1582 3.90317C18.3889 3.77873 17.2915 4.3444 17.2915 5.69071C17.2915 6.52792 17.8006 7.22936 18.3097 8.06656C18.7057 8.75669 18.932 9.6052 18.932 10.8497C18.932 12.5354 17.3481 16.5065 17.3481 16.5065L13.9201 7.03703C14.531 7.0144 14.8478 6.8447 14.8478 6.8447C15.4135 6.78813 15.3456 5.4305 14.7799 5.46444C14.7799 5.46444 13.1508 5.60021 12.0873 5.60021C11.103 5.60021 9.45122 5.46444 9.45122 5.46444C8.88554 5.4305 8.81766 6.82207 9.38334 6.8447L10.4242 6.93521L11.8497 10.7931L9.80194 17.3889ZM20.6969 11.3135C20.9684 10.5895 21.5341 9.19791 21.1834 6.50529C21.9753 7.96474 22.3713 9.57126 22.3713 11.3135C22.3713 15.0357 20.414 18.3732 17.3933 20.1155C18.4907 17.1853 19.5882 14.2324 20.6969 11.3135ZM7.90126 20.4662C4.52983 18.8371 2.2558 15.3072 2.2558 11.3135C2.2558 9.84279 2.51602 8.50779 3.07038 7.25198C4.6769 11.653 6.28343 16.0652 7.90126 20.4662ZM12.4606 12.9653L15.3795 20.8622C14.4066 21.1903 13.3883 21.3713 12.3135 21.3713C11.4198 21.3713 10.5373 21.2468 9.72275 20.9979C10.6391 18.3053 11.5555 15.6353 12.4606 12.9653V12.9653Z" fill="#3F5BE0"/>
<rect x="1" y="19" width="22.6271" height="22.6271" rx="11.3135" fill="white"/>
<path d="M12.3135 18.5C5.80494 18.5 0.5 23.7903 0.5 30.3135C0.5 36.8364 5.79066 42.1271 12.3135 42.1271C18.8364 42.1271 24.1271 36.8364 24.1271 30.3135C24.1271 23.7907 18.8364 18.5 12.3135 18.5ZM11.2305 31.6876H6.91369L11.2305 23.2878V31.6876ZM17.6866 28.9118L13.3827 37.307V28.9118H17.6866Z" fill="#069E08" stroke="white"/>
</svg>

<svg width="25" height="43" fill="none" xmlns="http://www.w3.org/2000/svg"><path d="M23.627 11.313C23.627 5.08 18.547 0 12.314 0 6.067 0 1 5.08 1 11.313c0 6.246 5.068 11.314 11.313 11.314 6.234 0 11.314-5.068 11.314-11.313ZM9.802 17.39 5.944 7.037c.622-.023 1.324-.09 1.324-.09.565-.068.498-1.279-.068-1.256 0 0-1.64.124-2.681.124-.204 0-.42 0-.657-.011 1.8-2.76 4.91-4.548 8.451-4.548 2.637 0 5.035.984 6.845 2.647-.77-.124-1.867.441-1.867 1.788 0 .837.51 1.538 1.019 2.376.396.69.622 1.538.622 2.783 0 1.685-1.584 5.656-1.584 5.656L13.92 7.037c.611-.023.928-.192.928-.192.566-.057.498-1.414-.068-1.38 0 0-1.63.135-2.693.135-.984 0-2.636-.136-2.636-.136-.565-.034-.633 1.358-.068 1.38l1.041.091 1.426 3.858-2.048 6.596Zm10.895-6.075c.271-.725.837-2.116.486-4.809.792 1.46 1.188 3.066 1.188 4.808 0 3.723-1.957 7.06-4.978 8.803 1.098-2.93 2.195-5.884 3.304-8.803ZM7.9 20.465c-3.371-1.629-5.645-5.159-5.645-9.153 0-1.47.26-2.805.814-4.061 1.607 4.401 3.213 8.813 4.831 13.214Zm4.56-7.5 2.918 7.896a9.523 9.523 0 0 1-3.066.51 8.911 8.911 0 0 1-2.59-.374c.916-2.693 1.832-5.363 2.738-8.033Z" fill="#3F5BE0"/><rect x="1" y="19" width="22.627" height="22.627" rx="11.313" fill="#fff"/><path d="M12.313 18.5C5.805 18.5.5 23.79.5 30.314c0 6.522 5.29 11.813 11.813 11.813 6.523 0 11.814-5.29 11.814-11.814 0-6.522-5.29-11.813-11.813-11.813ZM11.23 31.688H6.914l4.316-8.4v8.4Zm6.457-2.776-4.304 8.395v-8.395h4.304Z" fill="#069E08" stroke="#fff"/></svg>
